Hatter-kde-dark/actions/22/typewriter.svg

<?xml version="1.0" encoding="UTF-8"?>
<svg viewBox="0 0 22 22" xmlns="http://www.w3.org/2000/svg">
 <defs id="defs3051">
  <style id="current-color-scheme" type="text/css">.ColorScheme-Text {
        color:#dedede;
      }</style>
 </defs>
 <path class="ColorScheme-Text" d="m3 3v1 2h1v-2h6v14h-2-1v1h8v-1h-1-2v-14h6v2h1v-2-1h-16z" fill="currentColor"/>
</svg>

<svg xmlns="http://www.w3.org/2000/svg" viewBox="0 0 22 22">
  <defs id="defs3051">
    <style type="text/css" id="current-color-scheme">
      .ColorScheme-Text {
        color:#dedede;
      }
      </style>
  </defs>
 <path 
     style="fill:currentColor;fill-opacity:1;stroke:none" 
     d="M 3 3 L 3 4 L 3 6 L 4 6 L 4 4 L 10 4 L 10 18 L 8 18 L 7 18 L 7 19 L 15 19 L 15 18 L 14 18 L 12 18 L 12 4 L 18 4 L 18 6 L 19 6 L 19 4 L 19 3 L 3 3 z "
	 class="ColorScheme-Text"
     />
</svg>
